X:1
T:Title
%%score { ( 1 4 ) | ( 2 3 ) }
L:1/8
Q:1/4=100
M:4/4
K:F
V:1 treble nm="Grand Piano"
V:4 treble 
V:2 bass 
V:3 bass 
V:1
 [Ac]2 [Af]2 [_Ae]2 [Ad]2 | [Ac]2 BA [EA]2 [EG]2 | [Ed]2 [Gd]2 c-[Fc]E-[EG] | %3
w: S.~M.~Bixby * * *|||
 [A,DF]2 .[G,=B,E]2 [CG]4 | [^CA]2 [A,CE]2 [B,DG]2 [A,DF]2 | [CEc]2 .[CEG]2 [DFB]2 [CFA]2 | %6
w: |||
 [D^Fd]2 [DAc]2 [DGB]2 D-[DG] | F2 E2 [A,CF]4 | [Fc]3 [Ac] [_Ad]2 [Ge]2 | f2 ed c2 A2 | %10
w: ||||
 F2 [CEG]2 [CFA]2 [CFA]2 | [DFB]2 [DF]2 [^CEA]4 | [C^FA]3 [CFA] [CFA]2 [EG]A | %13
w: |||
 [B,GB]2 [B,GB]2 [Gd]2 [Gc]-[EGc] | c3 [DFB] [CFA]2 [A,F]2 |[M:8/4] .[CFA]2 [B,EG]2 [F,A,F]4 z8 | %16
w: |||
[M:4/4] [B,DF]8 | [F,A,CF]8 |] %18
w: ||
V:2
 [F,C]2 [F,C]2 [F,=B,]2 [F,B,]2 | z2 .D2 z4 | [C,B,]2 [E,B,]2 F,-[F,A,] z B, | D,2 z F [C,E,]4 | %4
 [A,,E,]2 A,,2 D,2 D,2 | C,2 z A F,2 F,2 | D,2 D,2 G,2 z B, | [C,A,C]2 [C,G,C]2 [F,,F,]4 | %8
 [F,A,]3 [F,C] [F,=B,]2 [F,_B,]2 | [F,A,F]2 [F,_A,F]2 [F,=A,F]2 [F,C]2 | [D,A,D]2 C,2 F,2 F,2 | %11
 B,,2 z G A,,4 | z4 z2 [D,C]2[K:treble] | z4[K:bass] .B,2 z2 | z2 EB,, C,2 D,2 | %15
[M:8/4] z D C,2 F,,4 z8 |[M:4/4] B,,8 | F,,8 |] %18
V:3
 x8 | [F,C]2 [F,F]-[F,CF] [C,C]2 [C,C]2 | z4 .B,2 C,2 | z2 G,,2 z4 | x8 | z2 C,2 z4 | z4 z2 B,,2 | %7
 x8 | x8 | x8 | x8 | z2 B,,2 z4 | D,3 D, D,2 z[K:treble] ^F | G,[K:bass]F,E,D, E,-[E,C]C,B,, | %14
 A,,4 z4 |[M:8/4] .C,4 z4 z8 |[M:4/4] x8 | x8 |] %18
V:4
 x8 | x8 | z4 .G2 .[CA]2 | x8 | x8 | x8 | z4 z2 .[CA]2 | x8 | x8 | x8 | x8 | x8 | x8 | z4 z2 .D2 | %14
 F2 z2 z4 |[M:8/4] x16 |[M:4/4] x8 | x8 |] %18

